X:103
T:Colibri TS.103
M:2/4
L:1/8
Q:1/2=90
S:Thomas Sands’ MS,1810,Lincolnshire
R:reel
O:England;Lincolnshire
Z:vmp.Ruairidh Greig, 2011
K:F
cffg|a2gf|a2gf|egg2|cffg|a2gf|dfeg|f2f2:|
|:fgfA|cAAc|BG B/A/G/F/|EGG2|fg/f/ ed|cAAc|BGFE|F2F2:|]

